X: 15
M: 4/4
L: 1/8
K: D
(3ABc |:\
"D"d2cd "A7"BAFA | "D"D2DE "Bm"FEDF | "Em"E^DEG "F#/D"F=F^FA | "G"GFGB "A7"ABcA |
"D"d2cd "A7"BAFA | "D"D2DE "Bm"FEDF | "Em"E2E2 "C#/A7"EGFE |1 "D"F2D2 "A7"D2(3ABc :|2 "D"F2D2 "A7"D2 A2 ||
|: "D"DCDF "Em"E^DEG | "F#/D"F=F^FA "G"GFGB | "D"A2Bc "Bm"d2AF | "Em"G2E2 "A7"E2A2 |
"D"DCDF "Em"E^DEG | "F#/D"F=F^FA "G"GFGB | "A7"A2Bc "C#/A7"d2AG | "D"F2D2 D2"A7"A2 |
"D"DCDF "Em"E^DEG | "F#/D"F=F^FA "G"GFGB | "D"A2Bc "Bm"d2AF | "Em"G2E2 "A7"E2A2 |
"D"d2cd "A7"BAFA | "D"D2DE "Bm"FEDF | "Em"E2E2 "A7"EGFE | "D"F2D2 "D"D4 |]


